dist/images/youtube-square.svg

<?xml version="1.0" encoding="UTF-8" standalone="no"?>
<svg width="30px" height="30px" viewBox="0 0 30 30" version="1.1" xmlns="http://www.w3.org/2000/svg" xmlns:xlink="http://www.w3.org/1999/xlink">
    <!-- Generator: Sketch 41.2 (35397) - http://www.bohemiancoding.com/sketch -->
    <title>youtube-square</title>
    <desc>Created with Sketch.</desc>
    <defs></defs>
    <g id="Pages" stroke="none" stroke-width="1" fill="none" fill-rule="evenodd">
        <g id="Homepage" transform="translate(-680.000000, -1717.000000)" fill="#FFFFFF">
            <g id="footer" transform="translate(0.000000, 1632.000000)">
                <g id="youtube-square" transform="translate(680.000000, 85.000000)">
                    <path d="M17.9492188,22.9492188 L17.9492188,19.8828125 C17.9492188,19.2317708 17.7604167,18.90625 17.3828125,18.90625 C17.1614583,18.90625 16.9466146,19.0104167 16.7382812,19.21875 L16.7382812,23.59375 C16.9466146,23.8020833 17.1614583,23.90625 17.3828125,23.90625 C17.7604167,23.90625 17.9492188,23.5872396 17.9492188,22.9492188 Z M21.5429688,20.5664062 L22.8320312,20.5664062 L22.8320312,19.9023438 C22.8320312,19.2382812 22.6171875,18.90625 22.1875,18.90625 C21.7578125,18.90625 21.5429688,19.2382812 21.5429688,19.9023438 L21.5429688,20.5664062 Z M10.390625,15.3710938 L10.390625,16.7382812 L8.828125,16.7382812 L8.828125,25 L7.3828125,25 L7.3828125,16.7382812 L5.859375,16.7382812 L5.859375,15.3710938 L10.390625,15.3710938 Z M14.3164062,17.8320312 L14.3164062,25 L13.0078125,25 L13.0078125,24.21875 C12.5,24.8046875 12.0052083,25.0976562 11.5234375,25.0976562 C11.09375,25.0976562 10.8203125,24.9153646 10.703125,24.5507812 C10.625,24.3424479 10.5859375,23.9908854 10.5859375,23.4960938 L10.5859375,17.8320312 L11.875,17.8320312 L11.875,23.1054688 C11.875,23.4179688 11.8815104,23.5872396 11.8945312,23.6132812 C11.9075521,23.8085938 12.0052083,23.90625 12.1875,23.90625 C12.4479167,23.90625 12.7213542,23.7044271 13.0078125,23.3007812 L13.0078125,17.8320312 L14.3164062,17.8320312 Z M19.2382812,20 L19.2382812,22.8515625 C19.2382812,23.5286458 19.1927083,24.0039062 19.1015625,24.2773438 C18.9453125,24.8242188 18.6002604,25.0976562 18.0664062,25.0976562 C17.6106771,25.0976562 17.1679688,24.8307292 16.7382812,24.296875 L16.7382812,25 L15.4296875,25 L15.4296875,15.3710938 L16.7382812,15.3710938 L16.7382812,18.515625 C17.1549479,17.9947917 17.5976562,17.734375 18.0664062,17.734375 C18.6002604,17.734375 18.9453125,18.0078125 19.1015625,18.5546875 C19.1927083,18.828125 19.2382812,19.3098958 19.2382812,20 Z M24.140625,22.5195312 L24.140625,22.6953125 C24.140625,23.0729167 24.1276042,23.3528646 24.1015625,23.5351562 C24.0625,23.8216146 23.9648438,24.0820312 23.8085938,24.3164062 C23.4570312,24.8372396 22.9361979,25.0976562 22.2460938,25.0976562 C21.5690104,25.0976562 21.0416667,24.8502604 20.6640625,24.3554688 C20.390625,24.0039062 20.2539062,23.4440104 20.2539062,22.6757812 L20.2539062,20.15625 C20.2539062,19.3880208 20.3841146,18.828125 20.6445312,18.4765625 C21.0221354,17.9817708 21.5429688,17.734375 22.2070312,17.734375 C22.8710938,17.734375 23.3789062,17.9817708 23.7304688,18.4765625 C24.0039062,18.8411458 24.140625,19.4010417 24.140625,20.15625 L24.140625,21.640625 L21.5429688,21.640625 L21.5429688,22.9101562 C21.5429688,23.5742188 21.7643229,23.90625 22.2070312,23.90625 C22.5195312,23.90625 22.7148438,23.7369792 22.7929688,23.3984375 C22.7929688,23.3854167 22.796224,23.3398438 22.8027344,23.2617188 C22.8092448,23.1835938 22.8125,23.0761719 22.8125,22.9394531 L22.8125,22.5195312 L24.140625,22.5195312 Z M15.3320312,6.42578125 L15.3320312,9.47265625 C15.3320312,10.1367188 15.1236979,10.46875 14.7070312,10.46875 C14.2903646,10.46875 14.0820312,10.1367188 14.0820312,9.47265625 L14.0820312,6.42578125 C14.0820312,5.74869792 14.2903646,5.41015625 14.7070312,5.41015625 C15.1236979,5.41015625 15.3320312,5.74869792 15.3320312,6.42578125 Z M25.7421875,20.3515625 C25.7421875,18.046875 25.6184896,16.3541667 25.3710938,15.2734375 C25.2408854,14.7005208 24.9609375,14.2220052 24.53125,13.8378906 C24.1015625,13.453776 23.6067708,13.2291667 23.046875,13.1640625 C21.2760417,12.96875 18.59375,12.8710938 15,12.8710938 C11.4192708,12.8710938 8.74348958,12.96875 6.97265625,13.1640625 C6.39973958,13.2291667 5.90169271,13.453776 5.47851562,13.8378906 C5.05533854,14.2220052 4.77864583,14.7005208 4.6484375,15.2734375 C4.38802083,16.40625 4.2578125,18.0989583 4.2578125,20.3515625 C4.2578125,22.6432292 4.38802083,24.3359375 4.6484375,25.4296875 C4.77864583,25.9895833 5.05533854,26.4648438 5.47851562,26.8554688 C5.90169271,27.2460938 6.39322917,27.4739583 6.953125,27.5390625 C8.73697917,27.734375 11.4192708,27.8320312 15,27.8320312 C18.5807292,27.8320312 21.2630208,27.734375 23.046875,27.5390625 C23.6067708,27.4739583 24.0983073,27.2460938 24.5214844,26.8554688 C24.9446615,26.4648438 25.2213542,25.9895833 25.3515625,25.4296875 C25.6119792,24.3359375 25.7421875,22.6432292 25.7421875,20.3515625 Z M10.9960938,7.63671875 L12.7539062,1.85546875 L11.2890625,1.85546875 L10.2929688,5.6640625 L9.2578125,1.85546875 L7.734375,1.85546875 L8.203125,3.203125 L8.65234375,4.55078125 C9.10807292,5.89192708 9.40755208,6.92057292 9.55078125,7.63671875 L9.55078125,11.5625 L10.9960938,11.5625 L10.9960938,7.63671875 Z M16.640625,9.21875 L16.640625,6.6796875 C16.640625,5.92447917 16.5039062,5.35807292 16.2304688,4.98046875 C15.8528646,4.48567708 15.3450521,4.23828125 14.7070312,4.23828125 C14.0429688,4.23828125 13.5351562,4.48567708 13.1835938,4.98046875 C12.9101562,5.35807292 12.7734375,5.92447917 12.7734375,6.6796875 L12.7734375,9.21875 C12.7734375,9.97395833 12.9101562,10.5403646 13.1835938,10.9179688 C13.5351562,11.4127604 14.0429688,11.6601562 14.7070312,11.6601562 C15.3450521,11.6601562 15.8528646,11.4127604 16.2304688,10.9179688 C16.5039062,10.5664062 16.640625,10 16.640625,9.21875 Z M20.1757812,11.5625 L21.484375,11.5625 L21.484375,4.3359375 L20.1757812,4.3359375 L20.1757812,9.86328125 C19.8893229,10.2669271 19.6158854,10.46875 19.3554688,10.46875 C19.1601562,10.46875 19.0559896,10.3645833 19.0429688,10.15625 C19.0299479,10.1302083 19.0234375,9.9609375 19.0234375,9.6484375 L19.0234375,4.3359375 L17.7148438,4.3359375 L17.7148438,10.0585938 C17.7148438,10.5403646 17.7539062,10.8984375 17.8320312,11.1328125 C17.9752604,11.484375 18.2552083,11.6601562 18.671875,11.6601562 C19.140625,11.6601562 19.6419271,11.3671875 20.1757812,10.78125 L20.1757812,11.5625 Z M30,5.625 L30,24.375 C30,25.9244792 29.4498698,27.249349 28.3496094,28.3496094 C27.249349,29.4498698 25.9244792,30 24.375,30 L5.625,30 C4.07552083,30 2.75065104,29.4498698 1.65039062,28.3496094 C0.550130208,27.249349 0,25.9244792 0,24.375 L0,5.625 C0,4.07552083 0.550130208,2.75065104 1.65039062,1.65039062 C2.75065104,0.550130208 4.07552083,0 5.625,0 L24.375,0 C25.9244792,0 27.249349,0.550130208 28.3496094,1.65039062 C29.4498698,2.75065104 30,4.07552083 30,5.625 Z" id="Shape"></path>
                </g>
            </g>
        </g>
    </g>
</svg>

<svg width="30" height="30" viewBox="0 0 30 30" xmlns="http://www.w3.org/2000/svg"><title>youtube-square</title><path d="M17.95 22.95v-3.067c0-.651-.19-.977-.567-.977-.222 0-.436.104-.645.313v4.375c.209.208.423.312.645.312.377 0 .566-.319.566-.957zm3.593-2.384h1.289v-.664c0-.664-.215-.996-.645-.996-.43 0-.644.332-.644.996v.664zm-11.152-5.195v1.367H8.828V25H7.383v-8.262H5.859v-1.367h4.532zm3.925 2.461V25h-1.308v-.781c-.508.586-1.003.879-1.485.879-.43 0-.703-.183-.82-.547-.078-.209-.117-.56-.117-1.055v-5.664h1.289v5.273c0 .313.007.482.02.508.013.196.11.293.293.293.26 0 .533-.202.82-.605v-5.469h1.308zM19.238 20v2.852c0 .677-.045 1.152-.136 1.425-.157.547-.502.82-1.036.82-.455 0-.898-.266-1.328-.8V25H15.43v-9.629h1.308v3.145c.417-.521.86-.782 1.328-.782.534 0 .88.274 1.036.82.09.274.136.756.136 1.446zm4.903 2.52v.175c0 .378-.013.658-.04.84-.038.287-.136.547-.292.781-.352.521-.873.782-1.563.782-.677 0-1.204-.248-1.582-.743-.273-.351-.41-.911-.41-1.68v-2.519c0-.768.13-1.328.39-1.68.378-.494.899-.742 1.563-.742.664 0 1.172.248 1.523.743.274.364.41.924.41 1.68v1.484h-2.597v1.27c0 .663.221.995.664.995.313 0 .508-.169.586-.508a4.108 4.108 0 0 0 .02-.459v-.42h1.328zM15.332 6.426v3.047c0 .664-.208.996-.625.996-.417 0-.625-.332-.625-.996V6.426c0-.677.208-1.016.625-1.016.417 0 .625.339.625 1.016zm10.41 13.926c0-2.305-.124-3.998-.37-5.079a2.672 2.672 0 0 0-.84-1.435 2.637 2.637 0 0 0-1.485-.674c-1.771-.195-4.453-.293-8.047-.293-3.58 0-6.257.098-8.027.293a2.607 2.607 0 0 0-1.494.674c-.424.384-.7.863-.83 1.435-.261 1.133-.391 2.826-.391 5.079 0 2.291.13 3.984.39 5.078.13.56.407 1.035.83 1.425.424.391.915.619 1.475.684 1.784.195 4.466.293 8.047.293 3.58 0 6.263-.098 8.047-.293a2.562 2.562 0 0 0 1.474-.684c.424-.39.7-.865.83-1.425.261-1.094.391-2.787.391-5.078zM10.996 7.637l1.758-5.782h-1.465l-.996 3.81-1.035-3.81H7.734l.47 1.348.448 1.348c.456 1.34.756 2.37.899 3.086v3.926h1.445V7.636zm5.645 1.582v-2.54c0-.755-.137-1.32-.41-1.699-.378-.494-.886-.742-1.524-.742-.664 0-1.172.248-1.523.742-.274.378-.41.944-.41 1.7v2.539c0 .755.136 1.321.41 1.699.351.495.859.742 1.523.742.638 0 1.146-.247 1.523-.742.274-.352.41-.918.41-1.7zm3.535 2.344h1.308V4.335h-1.308v5.527c-.287.404-.56.606-.82.606-.196 0-.3-.104-.313-.313-.013-.026-.02-.195-.02-.508V4.336h-1.308v5.723c0 .481.039.84.117 1.074.143.351.423.527.84.527.469 0 .97-.293 1.504-.879v.781zM30 5.625v18.75c0 1.55-.55 2.874-1.65 3.975-1.1 1.1-2.426 1.65-3.975 1.65H5.625c-1.55 0-2.874-.55-3.975-1.65C.55 27.25 0 25.924 0 24.375V5.625c0-1.55.55-2.874 1.65-3.975C2.75.55 4.076 0 5.625 0h18.75c1.55 0 2.874.55 3.975 1.65C29.45 2.75 30 4.076 30 5.625z" fill="#FFF" fill-rule="evenodd"/></svg>
